X: 38
M: 2/4
L: 1/16
K: A
V: 1
E2 |\
e2{g}fe dcBA | GABG E2(3(EFG) |\
{d}cBcd cedf |\
eagf gef^d | {d}e6 :||: (cd) |\
edef eedc | dcB^A B2Bc |
dcde ddcB | cBAG A2e2 |\
fAdf eAce | fAdf eAce |\
fedc BABG | {G}A6 :| [K:Am]
"Mineur"cd |\
edef ea (3(^gab) | d2de dfed |\
(3(ced) (3(cBA) (3(Bdc) (3(BA^G) | (3(AED) (3(CDE) A,2cd |\
edef ea (3(^gab) |
d2de dfed |\
(3(ced) (3(cBA) (3(Bdc) (3(BA^G) | {G}A6 |] ec |\
{c}B2cA {A}^G2ec | {c}B2cA {A}^G2ec |
f3e dcBA | (3(^GAB) (3(GAB) E2cd |\
edef ea (3(^gab) | d2de dfed |\
(3(ced) (3(cBA) (3(Bdc) (3(BA^G) | {G}A6 |]
V: 2 clef=bass middle=d
z2 | a2A2 c2e2 | a4 A2d2 | c4 d4 | e4 E4 | a2A2 c2e2 |
a4 A2d2 | c2a2b2B2 | e2B2E2 :||: z2 | z2c'2f2^a2 | b2f2 B4 |
z2b2e2g2 | a2e2 A2c2 | d4 c2A2 | d4 c2A2 | d2B2 e2E2 | A2a2A2 :| [K:Am]
"Mineur"z2 |\
a2A2 c2e2 | B2b2^g2e2 | a2c2d2e2 | a4 A4 | a2A2 c2e2 |
e4 E4 | a2A2 c2e2 | B2b2^g2e2 | a2c2d2e2 | a2e2A2 |]


